img/beard-sage.svg

<svg width="45" height="104" viewBox="0 0 45 104" fill="none" xmlns="http://www.w3.org/2000/svg">
	<path d="M43.7077 0H43.5868C40.746 21.3697 38.1672 22.392 36.5352 22.5111C34.9033 22.6302 32.8684 20.7543 31.5789 20.0099C28.8637 18.2832 25.6826 17.4045 22.4521 17.4888C19.2216 17.4045 16.0406 18.2832 13.3253 20.0099C12.0359 20.7543 9.79951 22.6203 8.36904 22.5111C6.81768 22.392 4.22873 21.3697 1.39801 0H1.27713C-0.808136 12.1191 -0.294375 49.8262 2.48598 63.1265C5.11522 81.5086 12.6705 97.9651 16.0251 102.432C16.7101 103.424 19.5811 103.99 22.4924 104C25.4037 104.01 28.2747 103.464 28.9598 102.432C32.3143 97.9651 39.8696 81.5086 42.4989 63.1265C45.3296 49.8262 45.793 12.1191 43.7077 0ZM22.4924 27.9404C19.0806 27.9437 15.6712 28.1193 12.2776 28.4665C13.416 26.7295 21.344 25.2506 22.4924 25.0422C23.6509 25.2506 31.5588 26.7295 32.7072 28.4665C29.3136 28.1196 25.9042 27.944 22.4924 27.9404Z" fill="#826550" />
</svg>

<svg width="45" height="104" fill="none" xmlns="http://www.w3.org/2000/svg"><path d="M43.708 0h-.121c-2.841 21.37-5.42 22.392-7.052 22.511-1.632.12-3.667-1.757-4.956-2.501a16.225 16.225 0 00-9.127-2.521 16.226 16.226 0 00-9.127 2.52c-1.29.745-3.525 2.611-4.956 2.502C6.818 22.392 4.229 21.37 1.398 0h-.12C-.809 12.12-.295 49.826 2.485 63.127c2.63 18.382 10.184 34.838 13.54 39.305.684.992 3.555 1.558 6.466 1.568 2.912.01 5.783-.536 6.468-1.568 3.354-4.467 10.91-20.923 13.539-39.306 2.83-13.3 3.294-51.007 1.209-63.126zM22.492 27.94c-3.411.004-6.82.18-10.214.526 1.138-1.736 9.066-3.215 10.214-3.424 1.159.209 9.067 1.688 10.215 3.424a101.504 101.504 0 00-10.215-.526z" fill="#826550"/></svg>
